svg/u1f3e1.svg

<svg viewBox="0 0 128 128" xmlns="http://www.w3.org/2000/svg">
  <path d="M4,112.82c-0.11,5.96,4.12,10.3,15.07,10.73s85.2,0.33,91.49,0.22c6.29-0.11,13.55-2.06,13.66-10.52 c0.11-8.46-11.38-10.41-11.38-10.41s-92.36,0.11-96.15,0.33S4.13,105.34,4,112.82z" fill="#B7D118"/>
  <path d="M94.47,106.4c0,0,23.83,0.16,24.98-0.08c1.15-0.25,2.07-1.66,2.23-3.06 c-0.08-5.03-5.86-5.35-5.86-5.35s0.96-3.19-1.68-5.83c-3.46-3.79-8.55-2.25-8.55-2.25s-0.82-2.72-3.22-4.21 c-2.39-1.48-7.67-1.07-7.67-1.07L94.47,106.4z" fill="#5A9821"/>
  <path d="M25.86,91.98c0,0-3.07-1.41-5.57-0.39c-3.79,1.55-3.63,4.17-4.64,5.18c-1,1-6.44,0.64-7.89,5.33 c-0.62,2.01-0.08,3.87,1.62,3.87s14.3-0.39,14.3-0.39L25.86,91.98z" fill="#5A9821"/>
  <path d="M23.7,89.2c0,0,0.08,6.03,0,7.27c-0.08,1.24-1.08,5.49-1.86,7.03c-0.77,1.55-0.93,2.94,0.15,3.17 s8.19,0,8.19,0L29.03,89.2H23.7z" fill="#875B50"/>
  <path d="M28.72,90.72C19.6,91.03,9.71,84.9,5.37,68.04s0.33-36.73,5.68-45.25s10.02-12.48,15.7-12.32 c6.97,0.21,14.25,9.88,17.36,17.99c3.02,7.86,2.93,14.43,2.93,14.43L31.51,89.04L28.72,90.72z" fill="#B7D118"/>
  <polygon points="64.81,40.09 28.18,76.89 28.47,106.07 55.69,110.37 100.81,107 100.92,73.95 " fill="#FFF3E1"/>
  <path d="M26.81,104.94l2.53-1.4V76.08l-2.35,1.57C26.99,77.65,27.25,104.94,26.81,104.94z" fill="#5F4E47"/>
  <polygon points="99.54,77.56 99.54,103.37 102.07,104.77 102.07,78.52 " fill="#5F4E47"/>
  <polygon points="65.06,44.02 26.99,79.65 26.99,70.67 65.1,34.57 102.07,72.85 102.07,80.44 " fill="#BCAA93"/>
  <path d="M23.25,69.12l-2.23,4.12l5.99-0.09c0,0,37.35-36.33,38.16-36.37c0.97-0.04,36.88,37,36.88,37 l5.31-0.08L67.52,30.78l-5.85-0.38L23.25,69.12z" fill="#AB5832"/>
  <path d="M16.36,72.22c-0.62,0.76-0.01,1.17,0.5,1.17c0.51,0,6.36-0.17,6.36-0.17l40.33-39.24 c0,0,0.93-0.95,1.59-0.92c0.72,0.04,1.65,0.94,1.65,0.94l40.52,39.72c0,0,4.62,0.01,5.36-0.17c0.8-0.2,0.39-0.95-0.59-2.01 c-0.72-0.78-41.7-41.31-42.37-42.01c-2.01-2.08-3-3.29-4.9-3.21c-1.91,0.08-3.04,1.49-4.95,3.25 C59.29,30.11,16.63,71.89,16.36,72.22z" fill="#ED6C31"/>
  <g>
    <path d="M88.5,86.44h8.26v-6.88c0-1.28-1.04-2.31-2.31-2.31H88.5V86.44z" fill="#A6CFD5"/>
    <path d="M86.01,86.44v-9.19h-6.45c-1.28,0-2.31,1.04-2.31,2.31v6.88H86.01z" fill="#A6CFD5"/>
    <path d="M86.01,89.04h-8.76v6.45c0,1.28,1.04,2.31,2.31,2.31h6.45V89.04z" fill="#A6CFD5"/>
    <path d="M88.5,89.04v8.76h5.95c1.28,0,2.31-1.04,2.31-2.31v-6.45H88.5z" fill="#A6CFD5"/>
  </g>
  <g>
    <path d="M42.76,86.44h8.26v-6.88c0-1.28-1.04-2.31-2.31-2.31h-5.95V86.44z" fill="#A6CFD5"/>
    <path d="M40.27,86.44v-9.19h-6.45c-1.28,0-2.31,1.04-2.31,2.31v6.88H40.27z" fill="#A6CFD5"/>
    <path d="M40.27,89.04h-8.76v6.45c0,1.28,1.04,2.31,2.31,2.31h6.45V89.04z" fill="#A6CFD5"/>
    <path d="M42.76,89.04v8.76h5.95c1.28,0,2.31-1.04,2.31-2.31v-6.45H42.76z" fill="#A6CFD5"/>
  </g>
  <path d="M53.71,107.31c0,0-0.12-19.94,0-24.97c0.12-5.03,4.85-9.38,10.31-9.19 c6.77,0.23,10.25,4.04,10.5,8.95c0.25,4.91,0.25,25.53,0.25,25.53L53.71,107.31z" fill="#D27857"/>
  <path d="M56.24,108.39c0,0-0.1-21.25,0-25.18c0.12-4.88,3.8-7.44,8.07-7.19c4.97,0.28,7.43,2.93,7.62,6.77 c0.19,3.84,0.19,25.62,0.19,25.62L56.24,108.39z" fill="#AB5932"/>
  <g>
    <path d="M69.55,91.07c-0.02-3.5-0.05-6.58-0.1-7.53c-0.13-2.54-1.93-4.52-5.44-4.64 c-2.83-0.1-5.16,2.11-5.23,4.72c-0.02,0.96-0.02,3.98,0,7.4L69.55,91.07z" fill="#D27857"/>
    <path d="M58.82,94.99c0.03,4.68,0.07,8.99,0.07,8.99l10.69,0.03c0,0,0-4.29-0.02-8.98L58.82,94.99z" fill="#D27857"/>
  </g>
  <path d="M69.59,92.87c-0.04,1.13,0.42,2.06,1.76,2.06s1.84-0.63,1.93-1.85c0.08-1.09-0.67-2.06-1.93-1.97 C70.09,91.19,69.62,92.07,69.59,92.87z" fill="#FFBA02"/>
  <path d="M76.93,113.92c0,0,8.69,0.04,15.03,0.06c6.51,0.01,10.34-0.15,11.51-0.79 c0.88-0.48,1.13-8.58-2.84-10.82c-3.92-2.21-6.74-0.61-8.12-0.47c-1.83,0.18-2.71-1.13-5.81-1.21c-6.91-0.18-8.97,5.55-8.97,5.55 L76.93,113.92z" fill="#728037"/>
  <path d="M26.12,113.44c0.81,0.77,5.77,0.49,12.53,0.44s12.27-0.01,12.27-0.01l2.67-6.53l-2.74-1.19 c0,0-0.09-3.64-4.4-4.8c-2.98-0.8-5.58,0.52-8.08,0.57c-2.51,0.05-3.77-0.99-6.56-0.33c-2.6,0.62-5.1,2.42-5.92,5.84 C25.32,109.8,25.46,112.82,26.12,113.44z" fill="#728037"/>
  <path d="M50.28,120.83l0.05-6.96h0.51l-0.01-7.75h26.98l-0.09,7.75h0.6v6.78 C78.32,120.64,50.28,120.87,50.28,120.83z" fill="#B0B0B0"/>
  <polygon points="78.33,117.79 78.33,120.64 50.27,120.83 50.3,117.76 " fill="#9B9B9B"/>
  <polygon points="50.83,110.85 77.78,110.87 77.78,113.86 50.83,113.87 " fill="#9B9B9B"/>
  <path d="M80.2,108.04c0.04,0.83,0.6,1.62,1.76,1.62c1.16,0,1.71-0.92,1.76-1.66c0.05-0.74-0.51-1.85-1.8-1.8 C80.62,106.24,80.15,107.11,80.2,108.04z" fill="#FDB900"/>
  <path d="M86.3,104.63c-0.08,0.79,0.69,1.89,1.8,1.76s1.66-0.92,1.57-1.85c-0.09-0.92-1.02-1.39-1.76-1.39 C87.18,103.15,86.39,103.75,86.3,104.63z" fill="#FDB900"/>
  <path d="M96.14,109.05c0.06,1.06,0.55,1.76,1.76,1.76c1.2,0,1.71-0.87,1.71-1.66c0-1.16-0.6-1.85-1.8-1.85 S96.1,108.18,96.14,109.05z" fill="#FDB900"/>
  <path d="M30.11,108.36c-1.11,0.09-1.66,0.97-1.62,1.76c0.05,0.79,0.6,1.71,1.62,1.62 c1.02-0.09,1.71-0.69,1.66-1.62C31.74,109.42,31.26,108.27,30.11,108.36z" fill="#FEB800"/>
  <path d="M37.87,103.46c-0.9,0-1.62,0.92-1.62,1.52c0,0.6,0.46,1.71,1.62,1.66s1.52-0.88,1.57-1.71 S38.61,103.46,37.87,103.46z" fill="#FEB800"/>
  <path d="M39.95,109.29c-0.08,0.78,0.42,1.94,1.66,1.89c1.25-0.05,1.66-1.06,1.62-1.85 c-0.05-0.79-0.83-1.48-1.62-1.52C40.83,107.76,40.04,108.36,39.95,109.29z" fill="#FEB800"/>
  <path d="M44.76,106.51c0.04,0.65,0.42,1.57,1.52,1.43c1.11-0.14,1.24-0.79,1.2-1.48 c-0.05-0.83-0.65-1.25-1.39-1.25S44.71,105.82,44.76,106.51z" fill="#FEB800"/>
</svg>

<svg viewBox="0 0 128 128" xmlns="http://www.w3.org/2000/svg">
  <defs/>
  <path d="M4,112.82 C3.89,118.78 8.12,123.12 19.07,123.55 C30.02,123.98 104.27,123.88 110.56,123.77 C116.85,123.66 124.11,121.71 124.22,113.25 C124.33,104.79 112.84,102.84 112.84,102.84 C112.84,102.84 20.48,102.95 16.69,103.17 C12.9,103.39 4.13,105.34 4,112.82 Z" fill="#B7D118"/>
  <path d="M94.47,106.4 C94.47,106.4 118.3,106.56 119.45,106.32 C120.6,106.07 121.52,104.66 121.68,103.26 C121.6,98.23 115.82,97.91 115.82,97.91 C115.82,97.91 116.78,94.72 114.14,92.08 C110.68,88.29 105.59,89.83 105.59,89.83 C105.59,89.83 104.77,87.11 102.37,85.62 C99.98,84.14 94.7,84.55 94.7,84.55 L94.47,106.4 Z" fill="#5A9821"/>
  <path d="M25.86,91.98 C25.86,91.98 22.79,90.57 20.29,91.59 C16.5,93.14 16.66,95.76 15.65,96.77 C14.65,97.77 9.21,97.41 7.76,102.1 C7.14,104.11 7.68,105.97 9.38,105.97 C11.08,105.97 23.68,105.58 23.68,105.58 L25.86,91.98 Z" fill="#5A9821"/>
  <path d="M23.7,89.2 C23.7,89.2 23.78,95.23 23.7,96.47 C23.62,97.71 22.62,101.96 21.84,103.5 C21.07,105.05 20.91,106.44 21.99,106.67 C23.07,106.9 30.18,106.67 30.18,106.67 L29.03,89.2 L23.7,89.2 Z" fill="#875B50"/>
  <path d="M28.72,90.72 C19.6,91.03 9.71,84.9 5.37,68.04 C1.03,51.18 5.7,31.31 11.05,22.79 C16.4,14.27 21.07,10.31 26.75,10.47 C33.72,10.68 41,20.35 44.11,28.46 C47.13,36.32 47.04,42.89 47.04,42.89 L31.51,89.04 L28.72,90.72 Z" fill="#B7D118"/>
  <path d="M64.81,40.09 L28.18,76.89 L28.47,106.07 L55.69,110.37 L100.81,107 L100.92,73.95 Z" fill="#FFF3E1"/>
  <path d="M26.81,104.94 L29.34,103.54 L29.34,76.08 L26.99,77.65 C26.99,77.65 27.25,104.94 26.81,104.94 Z" fill="#5F4E47"/>
  <path d="M99.54,77.56 L99.54,103.37 L102.07,104.77 L102.07,78.52 Z" fill="#5F4E47"/>
  <path d="M65.06,44.02 L26.99,79.65 L26.99,70.67 L65.1,34.57 L102.07,72.85 L102.07,80.44 Z" fill="#BCAA93"/>
  <path d="M23.25,69.12 L21.02,73.24 L27.01,73.15 C27.01,73.15 64.36,36.82 65.17,36.78 C66.14,36.74 102.05,73.78 102.05,73.78 L107.36,73.7 L67.52,30.78 L61.67,30.4 L23.25,69.12 Z" fill="#AB5832"/>
  <path d="M16.36,72.22 C15.74,72.98 16.35,73.39 16.86,73.39 C17.37,73.39 23.22,73.22 23.22,73.22 L63.55,33.98 C63.55,33.98 64.48,33.03 65.14,33.06 C65.86,33.1 66.79,34 66.79,34 L107.31,73.72 C107.31,73.72 111.93,73.73 112.67,73.55 C113.47,73.35 113.06,72.6 112.08,71.54 C111.36,70.76 70.38,30.23 69.71,29.53 C67.7,27.45 66.71,26.24 64.81,26.32 C62.9,26.4 61.77,27.81 59.86,29.57 C59.29,30.11 16.63,71.89 16.36,72.22 Z" fill="#ED6C31"/>
  <path d="M88.5,86.44 L96.76,86.44 L96.76,79.56 C96.76,78.28 95.72,77.25 94.45,77.25 L88.5,77.25 L88.5,86.44 Z" fill="#A6CFD5"/>
  <path d="M86.01,86.44 L86.01,77.25 L79.56,77.25 C78.28,77.25 77.25,78.29 77.25,79.56 L77.25,86.44 L86.01,86.44 Z" fill="#A6CFD5"/>
  <path d="M86.01,89.04 L77.25,89.04 L77.25,95.49 C77.25,96.77 78.29,97.8 79.56,97.8 L86.01,97.8 L86.01,89.04 Z" fill="#A6CFD5"/>
  <path d="M88.5,89.04 L88.5,97.8 L94.45,97.8 C95.73,97.8 96.76,96.76 96.76,95.49 L96.76,89.04 L88.5,89.04 Z" fill="#A6CFD5"/>
  <path d="M42.76,86.44 L51.02,86.44 L51.02,79.56 C51.02,78.28 49.98,77.25 48.71,77.25 L42.76,77.25 L42.76,86.44 Z" fill="#A6CFD5"/>
  <path d="M40.27,86.44 L40.27,77.25 L33.82,77.25 C32.54,77.25 31.51,78.29 31.51,79.56 L31.51,86.44 L40.27,86.44 Z" fill="#A6CFD5"/>
  <path d="M40.27,89.04 L31.51,89.04 L31.51,95.49 C31.51,96.77 32.55,97.8 33.82,97.8 L40.27,97.8 L40.27,89.04 Z" fill="#A6CFD5"/>
  <path d="M42.76,89.04 L42.76,97.8 L48.71,97.8 C49.99,97.8 51.02,96.76 51.02,95.49 L51.02,89.04 L42.76,89.04 Z" fill="#A6CFD5"/>
  <path d="M53.71,107.31 C53.71,107.31 53.59,87.37 53.71,82.34 C53.83,77.31 58.56,72.96 64.02,73.15 C70.79,73.38 74.27,77.19 74.52,82.1 C74.77,87.01 74.77,107.63 74.77,107.63 L53.71,107.31 Z" fill="#D27857"/>
  <path d="M56.24,108.39 C56.24,108.39 56.14,87.14 56.24,83.21 C56.36,78.33 60.04,75.77 64.31,76.02 C69.28,76.3 71.74,78.95 71.93,82.79 C72.12,86.63 72.12,108.41 72.12,108.41 L56.24,108.39 Z" fill="#AB5932"/>
  <path d="M69.55,91.07 C69.53,87.57 69.5,84.49 69.45,83.54 C69.32,81 67.52,79.02 64.01,78.9 C61.18,78.8 58.85,81.01 58.78,83.62 C58.76,84.58 58.76,87.6 58.78,91.02 L69.55,91.07 Z" fill="#D27857"/>
  <path d="M58.82,94.99 C58.85,99.67 58.89,103.98 58.89,103.98 L69.58,104.01 C69.58,104.01 69.58,99.72 69.56,95.03 L58.82,94.99 Z" fill="#D27857"/>
  <path d="M69.59,92.87 C69.55,94 70.01,94.93 71.35,94.93 C72.69,94.93 73.19,94.3 73.28,93.08 C73.36,91.99 72.61,91.02 71.35,91.11 C70.09,91.19 69.62,92.07 69.59,92.87 Z" fill="#FFBA02"/>
  <path d="M76.93,113.92 C76.93,113.92 85.62,113.96 91.96,113.98 C98.47,113.99 102.3,113.83 103.47,113.19 C104.35,112.71 104.6,104.61 100.63,102.37 C96.71,100.16 93.89,101.76 92.51,101.9 C90.68,102.08 89.8,100.77 86.7,100.69 C79.79,100.51 77.73,106.24 77.73,106.24 L76.93,113.92 Z" fill="#728037"/>
  <path d="M26.12,113.44 C26.93,114.21 31.89,113.93 38.65,113.88 C45.41,113.83 50.92,113.87 50.92,113.87 L53.59,107.34 L50.85,106.15 C50.85,106.15 50.76,102.51 46.45,101.35 C43.47,100.55 40.87,101.87 38.37,101.92 C35.86,101.97 34.6,100.93 31.81,101.59 C29.21,102.21 26.71,104.01 25.89,107.43 C25.32,109.8 25.46,112.82 26.12,113.44 Z" fill="#728037"/>
  <path d="M50.28,120.83 L50.33,113.87 L50.84,113.87 L50.83,106.12 L77.81,106.12 L77.72,113.87 L78.32,113.87 L78.32,120.65 C78.32,120.64 50.28,120.87 50.28,120.83 Z" fill="#B0B0B0"/>
  <path d="M78.33,117.79 L78.33,120.64 L50.27,120.83 L50.3,117.76 Z" fill="#9B9B9B"/>
  <path d="M50.83,110.85 L77.78,110.87 L77.78,113.86 L50.83,113.87 Z" fill="#9B9B9B"/>
  <path d="M80.2,108.04 C80.24,108.87 80.8,109.66 81.96,109.66 C83.12,109.66 83.67,108.74 83.72,108 C83.77,107.26 83.21,106.15 81.92,106.2 C80.62,106.24 80.15,107.11 80.2,108.04 Z" fill="#FDB900"/>
  <path d="M86.3,104.63 C86.22,105.42 86.99,106.52 88.1,106.39 C89.21,106.26 89.76,105.47 89.67,104.54 C89.58,103.62 88.65,103.15 87.91,103.15 C87.18,103.15 86.39,103.75 86.3,104.63 Z" fill="#FDB900"/>
  <path d="M96.14,109.05 C96.2,110.11 96.69,110.81 97.9,110.81 C99.1,110.81 99.61,109.94 99.61,109.15 C99.61,107.99 99.01,107.3 97.81,107.3 C96.61,107.3 96.1,108.18 96.14,109.05 Z" fill="#FDB900"/>
  <path d="M30.11,108.36 C29,108.45 28.45,109.33 28.49,110.12 C28.54,110.91 29.09,111.83 30.11,111.74 C31.13,111.65 31.82,111.05 31.77,110.12 C31.74,109.42 31.26,108.27 30.11,108.36 Z" fill="#FEB800"/>
  <path d="M37.87,103.46 C36.97,103.46 36.25,104.38 36.25,104.98 C36.25,105.58 36.71,106.69 37.87,106.64 C39.03,106.59 39.39,105.76 39.44,104.93 C39.49,104.1 38.61,103.46 37.87,103.46 Z" fill="#FEB800"/>
  <path d="M39.95,109.29 C39.87,110.07 40.37,111.23 41.61,111.18 C42.86,111.13 43.27,110.12 43.23,109.33 C43.18,108.54 42.4,107.85 41.61,107.81 C40.83,107.76 40.04,108.36 39.95,109.29 Z" fill="#FEB800"/>
  <path d="M44.76,106.51 C44.8,107.16 45.18,108.08 46.28,107.94 C47.39,107.8 47.52,107.15 47.48,106.46 C47.43,105.63 46.83,105.21 46.09,105.21 C45.35,105.21 44.71,105.82 44.76,106.51 Z" fill="#FEB800"/>
</svg>
